outputs/icons/hardware/scanner_round.svg

<svg xmlns="http://www.w3.org/2000/svg" width="1200" height="1200" fill="none"><g clip-path="url(#a)"><path fill="#000" d="M950 600h-50V300c0-55-45-100-100-100H400c-55 0-100 45-100 100v300h-50c-83 0-150 67-150 150v150c0 55 45 100 100 100h800c55 0 100-45 100-100V750c0-83-67-150-150-150m-150 0H400V300h400zm100 250c-27.5 0-50-22.5-50-50s22.5-50 50-50 50 22.5 50 50-22.5 50-50 50"/></g><defs><clipPath id="a"><path fill="#fff" d="M0 0h1200v1200H0z"/></clipPath></defs></svg>

<svg width="1200" height="1200" viewBox="0 0 1200 1200" fill="none" xmlns="http://www.w3.org/2000/svg"><g clip-path="url(#clip0_238_1274)"><path d="M950 600H900V300C900 245 855 200 800 200H400C345 200 300 245 300 300V600H250C167 600 100 667 100 750V900C100 955 145 1000 200 1000H1000C1055 1000 1100 955 1100 900V750C1100 667 1033 600 950 600ZM800 600H400V300H800V600ZM900 850C872.5 850 850 827.5 850 800C850 772.5 872.5 750 900 750C927.5 750 950 772.5 950 800C950 827.5 927.5 850 900 850Z" fill="black"/></g><defs><clipPath id="clip0_238_1274"><path width="24" fill="white" d="M0 0H1200V1200H0V0z"/></clipPath></defs></svg>
